X:1
T:The Rock and the Sand
T:The Rock and the Sand
T:James Holmes Rosecrans
T:Henry Robert Trickett, 1878
T:Public Domain Courtesy of the Cyber Hymnal™
T:Public Domain Courtesy of the Cyber Hymnal™
C:James Holmes Rosecrans
Z:Public Domain
Z:Courtesy of the Cyber Hymnal™
%%score ( 1 2 ) ( 3 4 )
L:1/8
Q:1/4=102
M:4/4
K:E
V:1 treble 
V:2 treble 
V:3 bass 
V:4 bass 
V:1
 (EF) | [EG]2 [EG]>[EG] [DA]2 [DA][DA] | [EB] [Ge]3 z2 (EF) | [EG]2 [EG]>[EG] [Ec]2 [EB]>[EG] | %4
w: 1.~On *|what are you build- ing, my|bro- ther, Your *|hopes of an e- ter- nal|
w: 2.~On *|one or the o- ther, my|bro- ther, You~are *|build- ing your hopes day by|
w: 3.~Your *|Sav- ior has warned you, my|bro- ther, I *|pray you give heed to His|
w: 4.~No *|mat- ter how care- ful, my|bro- ther, The *|sand for your house you pre-|
 [DF]6 E[EF] | [EG]2 [EG]>[EG] [DA]2 [Dc][DA] | [EB]2 [EB]>[EB] !fermata![Ec]2 [Ee][Ac] | %7
w: home? Is it|loose shift- ing sand, or the|firm sol- id rock, You are|
w: day; You are|risk- ing your soul on the|works that you do, Will the|
w: voice; There is|life on the rock, but death|on the sa- nd; O- h,|
w: pare; ’Twill be|all swept a- way when the|floods shall des- ce- nd, And|
 [GB]2 E[EF] [EG]2 [DF]>[DF] | E6 z2 ||"^Refrain" [DF][DF] [EG]2 [FA] [FA]2 [FA] | %10
w: trust- ing for ag- es to|come?||
w: dark wa- ters sweep you a-|way?|Hear- ing and do- ing, we|
w: bro- ther, pray tell me your|choice.||
w: you be left per- ish- ing|there.||
 [EG]2 [EG]>[FA] [GB]4 | [DF][DF] [EG]2 [FA]3 [FA] | [EG]2 [EG]>[FA] [GB]4 | %13
w: |||
w: build on the rock;|Hear- ing a- lone, we|build on the sand;|
w: |||
w: |||
 [Ac]2 [Ac]>[Ac] [Ae]2 [Ad][Ac] | ([Ac][GB])[GB][EG] [GB]4 | [Ac]2 [Ae]>[Ac] [GB]2 (EA) | %16
w: |||
w: Both will be tried by the|storm * and the flood;|On- ly the rock the *|
w: |||
w: |||
 [EG][EG] [DF]2 E4 |] %17
w: |
w: tri- al will stand.|
w: |
w: |
V:2
 E2 | x8 | x6 E2 | x8 | x6 E x | x8 | x8 | x2 E x5 | E6 x2 || x8 | x8 | x8 | x8 | x8 | x8 | x6 E2 | %16
 x4 E4 |] %17
V:3
 (G,A,) | [E,B,]2 [E,B,]>[E,B,] [F,B,]2 [F,B,][F,B,] | [G,B,] [E,B,]3 z2 (G,A,) | %3
 [E,B,]2 [E,B,]>[E,B,] [E,A,]2 [E,G,]>[E,B,] | [B,,B,]6 [E,G,][E,A,] | %5
 [E,B,]2 [E,B,]>[E,B,] [F,B,]2 [F,B,][F,B,] | [G,E]2 [G,E]>[G,E] [A,E]2 [A,C][A,E] | %7
 [E,E]2 [G,B,][A,C] B,2 [B,,A,]>[B,,A,] | [E,G,]6 z2 || %9
 [B,,B,][B,,B,] [B,,B,]2 [B,,B,] [B,,B,]2 [B,,B,] | [E,B,]2 [E,B,]>[E,B,] [E,E]4 | %11
 [B,,B,][B,,B,] [B,,B,]2 [B,,B,]3 [B,,B,] | [E,B,]2 [E,B,]>[E,B,] [E,E]4 | %13
 [A,E]2 [A,E]>[A,E] [A,C]2 [A,C][A,E] | [E,E]2 [E,E][E,B,] [E,E]4 | %15
 [A,E]2 [A,C]>[A,E] [E,E]2 ([E,G,][A,,C]) | [B,,B,][B,,B,] [B,,B,]2 [E,G,]4 |] %17
V:4
 E,2 | x8 | x6 E,2 | x8 | x8 | x8 | x8 | x4 B,2 x2 | x8 || x8 | x8 | x8 | x8 | x8 | x8 | x8 | x8 |] %17

